images/global/icons/experiential/neddle.svg

<svg xmlns="http://www.w3.org/2000/svg" viewBox="0 0 276 137"><path fill="#FFF" stroke="#091F2F" stroke-width="3" stroke-linecap="round" stroke-miterlimit="10" d="M118.5 31.9v22.9m8.517.047v58.2h-15.9v-58.2zM137.2 113H99.1"/><path fill="#FFF" stroke="#091F2F" stroke-width="3" stroke-linecap="round" stroke-miterlimit="10" d="M122.786 113.01v8.3h-6.7v-8.3zm6.714 8.19h-22M127 64.3h-5.7m5.7 8.1h-5.7m5.7 8.1h-8.8m8.8 8.2h-5.7m5.7 8.1h-5.7m5.7 8.1h-8.8m35.3 9.4V91.4m-8.517.08v-58.2h15.9v58.2zM134.7 33.3h38.2"/><path fill="#FFF" stroke="#091F2F" stroke-width="3" stroke-linecap="round" stroke-miterlimit="10" d="M149.246 33.31v-8.3h6.7v8.3zM142.5 25h21.9M145 82h5.6m-5.6-8.2h5.6m-5.6-8.1h8.8m-8.8-8.1h5.6m-5.6-8.2h5.6m-5.6-8.1h8.8"/></svg>

<svg xmlns="http://www.w3.org/2000/svg" xmlns:xlink="http://www.w3.org/1999/xlink" viewBox="0 0 276 137"><defs><circle id="a" cx="-454" cy="-88.5" r="50.5"/></defs><clipPath id="b"><use xlink:href="#a" overflow="visible"/></clipPath><g clip-path="url(#b)"><defs><path id="c" d="M-628.5-824.5h1121v1030h-1121z"/></defs></g><defs><circle id="d" cx="-454" cy="-88.5" r="43.5"/></defs><clipPath id="e"><use xlink:href="#d" overflow="visible"/></clipPath><g clip-path="url(#e)"><defs><path id="f" d="M-628.5-824.5h1121v1030h-1121z"/></defs></g><path fill="#FFF" stroke="#091F2F" stroke-width="3" stroke-linecap="round" stroke-miterlimit="10" d="M118.5 31.9v22.9M127.017 54.847v58.2h-15.9v-58.2zM137.2 113H99.1"/><path fill="#FFF" stroke="#091F2F" stroke-width="3" stroke-linecap="round" stroke-miterlimit="10" d="M122.786 113.01v8.3h-6.7v-8.3zM129.5 121.2h-22M127 64.3h-5.7M127 72.4h-5.7M127 80.5h-8.8M127 88.7h-5.7M127 96.8h-5.7M127 104.9h-8.8M153.5 114.3V91.4M144.983 91.48v-58.2h15.9v58.2zM134.7 33.3h38.2"/><path fill="#FFF" stroke="#091F2F" stroke-width="3" stroke-linecap="round" stroke-miterlimit="10" d="M149.246 33.31v-8.3h6.7v8.3zM142.5 25h21.9M145 82h5.6M145 73.8h5.6M145 65.7h8.8M145 57.6h5.6M145 49.4h5.6M145 41.3h8.8"/></svg>
